packages/flutter/assets/icons/hourglass.svg

<?xml version="1.0" encoding="UTF-8"?>
<svg width="24px" height="24px" viewBox="0 0 24 24" version="1.1" xmlns="http://www.w3.org/2000/svg" xmlns:xlink="http://www.w3.org/1999/xlink">
    <title>hourglass</title>
    <g id="hourglass" stroke="none" stroke-width="1" fill="none" fill-rule="evenodd">
        <path d="M4.5,20.5 C4.22385763,20.5 4,20.2761424 4,20 C4,19.7545401 4.17687516,19.5503916 4.41012437,19.5080557 L4.5,19.5 L6.51212831,19.4996081 C6.55521891,18.618957 6.71307541,17.7835896 6.98479785,16.9942579 L7.00298233,16.9447352 C7.01151542,16.8686455 7.03743965,16.7954151 7.07846623,16.7309948 C7.78105676,14.8935606 9.11556168,13.3120776 11.071669,11.9972627 C8.17813227,10.0243738 6.64798637,7.346103 6.51021984,4.00108411 L4.5,4 C4.22385763,4 4,3.77614237 4,3.5 C4,3.25454011 4.17687516,3.05039163 4.41012437,3.00805567 L4.5,3 L19.5,3 C19.7761424,3 20,3.22385763 20,3.5 C20,3.74545989 19.8231248,3.94960837 19.5898756,3.99194433 L19.5,4 L17.4897802,4.00108411 C17.3520136,7.346103 15.8218677,10.0243738 12.9279933,11.9985027 C15.8059027,13.931448 17.3382968,16.4427161 17.4878717,19.4996081 L19.5,19.5 C19.7761424,19.5 20,19.7238576 20,20 C20,20.2454599 19.8231248,20.4496084 19.5898756,20.4919443 L19.5,20.5 L4.5,20.5 Z M7.95590742,17.347723 L7.91590807,17.3638299 C7.68823945,18.0385581 7.55435133,18.7503965 7.51347844,19.4999884 L16.4865216,19.4999884 C16.4516231,18.8599643 16.3489141,18.2474635 16.1779182,17.6620855 C14.5107888,18.2746765 13.4886326,18.1759238 12.0056493,17.5421268 L11.7185586,17.4156618 C10.3078447,16.7826473 9.51554969,16.6953423 7.95590742,17.347723 Z M12,12.586 L12.2572479,12.4287465 C10.5166268,13.4731191 9.25891936,14.6948359 8.47549052,16.101154 C9.73483126,15.7341658 10.6635274,15.8760863 11.9065179,16.4063157 L12.1825151,16.5277983 C13.5738181,17.1524281 14.3613134,17.2669349 15.8331968,16.7250426 C15.0953811,15.0525668 13.735557,13.6244294 11.7427521,12.4287465 L12,12.586 Z M7.51114022,4.00111189 C7.65659321,7.23472057 9.22699622,9.74288387 12.2583084,11.5718917 L12,11.411 L12.0356636,11.3894653 C14.8746293,9.57733514 16.3481843,7.12850957 16.4888598,4.00111189 Z" id="Path-15" fill="#303846"></path>
    </g>
</svg>

<svg xmlns="http://www.w3.org/2000/svg" width="24" height="24" viewBox="0 0 24 24"><path fill-rule="evenodd" d="M4.5 20.5a.5.5 0 0 1-.09-.992l.09-.008h2.012a9.006 9.006 0 0 1 .473-2.506l.018-.05a.503.503 0 0 1 .075-.213c.703-1.837 2.038-3.419 3.994-4.734-2.894-1.973-4.424-4.65-4.562-7.996L4.5 4a.5.5 0 0 1-.09-.992L4.5 3h15a.5.5 0 0 1 .09.992L19.5 4l-2.01.001c-.138 3.345-1.668 6.023-4.562 7.998 2.878 1.932 4.41 4.444 4.56 7.5l2.012.001a.5.5 0 0 1 .09.992l-.09.008h-15zm3.456-3.152l-.04.016a8.013 8.013 0 0 0-.403 2.136h8.974a8.106 8.106 0 0 0-.31-1.838c-1.666.613-2.688.514-4.171-.12l-.287-.126c-1.411-.633-2.203-.72-3.763-.068zM12 12.586l.257-.157c-1.74 1.044-2.998 2.266-3.782 3.672 1.26-.367 2.189-.225 3.432.305l.276.122c1.39.624 2.178.739 3.65.197-.738-1.672-2.097-3.1-4.09-4.296l.257.157zM7.511 4.001c.146 3.234 1.716 5.742 4.747 7.57l-.258-.16.036-.022c2.839-1.812 4.312-4.26 4.453-7.388z"/></svg>
